X:21080 
T:HIGHWAY TO KILKENNY, The 
B:DMI.0451
Z:Nordberg/Black
R:slip jig
%Q:1/4=150
M:9/8
L:1/8
K:Em
G2g gfg dBG|A2B c2d ecA|
G2g gfg dBG|1 ege faf gdB:|\
[2 AcA BGE E23||
e2f g2e fdB|e2f g2a bge|
[1 gbg faf ege|BdB AcA BGE:|
[2 faf gbf dBG|AcA BGE E3|]

%%%

